packages/icons/src/coupon-fill.svg

<svg width="24" height="24" viewBox="0 0 24 24" fill="none" xmlns="http://www.w3.org/2000/svg">
<path fill-rule="evenodd" clip-rule="evenodd" d="M6 4C3.79086 4 2 5.79086 2 8V16C2 18.2091 3.79086 20 6 20H18C20.2091 20 22 18.2091 22 16V8C22 5.79086 20.2091 4 18 4H6ZM15.066 9.99479L14.0053 8.93413L8.93424 14.0052L9.9949 15.0659L15.066 9.99479ZM15.4903 14.4993C15.4903 13.947 15.0426 13.4993 14.4903 13.4993C13.938 13.4993 13.4903 13.947 13.4903 14.4993C13.4903 15.0516 13.938 15.4993 14.4903 15.4993C15.0426 15.4993 15.4903 15.0516 15.4903 14.4993ZM10.5181 9.53357C10.5181 8.98128 10.0704 8.53357 9.51807 8.53357C8.96578 8.53357 8.51807 8.98128 8.51807 9.53357C8.51807 10.0859 8.96578 10.5336 9.51807 10.5336C10.0704 10.5336 10.5181 10.0859 10.5181 9.53357Z" fill="black"/>
</svg>

<svg xmlns="http://www.w3.org/2000/svg" width="24" height="24" fill="none" viewBox="0 0 24 24">
  <path fill="#000" fill-rule="evenodd" d="M6 4a4 4 0 0 0-4 4v8a4 4 0 0 0 4 4h12a4 4 0 0 0 4-4V8a4 4 0 0 0-4-4H6Zm9.066 5.995-1.06-1.06-5.072 5.07 1.06 1.06 5.072-5.07Zm.424 4.504a1 1 0 1 0-2 0 1 1 0 0 0 2 0Zm-4.972-4.965a1 1 0 1 0-2 0 1 1 0 0 0 2 0Z" clip-rule="evenodd"/>
</svg>
